X:1
T:Piano Four Hands
T: Von fremden Ländern und Menschen Kinderszenen op. 15 n. 1 
T:R. Schumann
%%score { 1 | 2 | ( 3 5 ) | 4 }
L:1/8
Q:1/4=70
M:2/4
K:G
V:1 treble nm="Primo\n\n\n\n\n\n\nSecondo"
V:2 treble 
V:3 treble 
V:5 treble 
V:4 bass 
V:1
!p! (b2 g'2 | f'>e' d'2) | (b2 g'2 | f'>e' d'2) | (b2 g'2 | e'>d' c'2 | a2 d'2) | b4 :: %8
!p! ([gb]2 [ac']2 | [fa]2 [gb]2) | ([eg]2 [ea]2 | %11
"_ritar    -      -          dan    -    -    -         -   do" [^df]2 [=dg]2) | (e2 f2 | %13
 g>a"_a tempo" !fermata!b>!p!c')!p! | (d'2 g'2 | f'>e' d'2) | (b2 g'2 | f'>e' d'2) | (b2 g'2 | %19
!>(! e'>d' c'2 | a2 d'2) | b4!>)! :| %22
V:2
 (B2 g2 | f>e d2) | (B2 g2 | f>e d2) | (B2 g2 | e>d c2 | A2 d2 | B4) :: ([GB]2 [Ac]2 | %9
 [FA]2 [GB]2) | ([EG]2 [EA]2 | [^DF]2 [=DG]2) | (E2 F2 | G>A !fermata!B>c) | (d2 g2 | f>e d2) | %16
 (B2 g2 | f>e d2) | (B2 g2 | e>d c2 | A2 d2 | B4) :| %22
V:3
!p! (3B,DG (3_B,EG | (3A,DF (3CDA | (3B,DG (3_B,EG | (3A,DF (3CDA | (3B,DG (3G,DG | (3G,EG (3G,CG | %6
 (3G,CG (3F,C!>(!F | (3z B,G (3G,B,!>)!G ::!p! (3z B,E (3z A,E | (3z A,D (3z[K:bass] G,D | %10
 (3z G,C (3z F,C | (3z F,B, (3z G,B, | (3z G,C (3D,A,D | (3D,G,D (3!fermata!z"_a tempo" A,D | %14
 (3B,DG (3_B,EG | (3A,DF[K:treble] (3=CDA | (3B,DG (3_B,EG | (3A,DF (3CDA | (3B,DG (3G,DG | %19
 (3G,EG (3G,CG | (3G,CG!>(! (3F,CF | (3z (B,!>)!G (3B,)B,G :| %22
V:4
 [G,,G,] z [^C,,^C,] z | [D,,D,] z [F,,F,] z | [G,,G,] z [^C,,^C,] z | [D,,D,] z [F,,F,] z | %4
 [G,,G,] z [B,,,B,,] z | [C,,C,] z [E,,E,] z | [D,,D,] z [D,,D,] z | [G,,D,] z G,, z :: (E,2 A,,2 | %9
 D,>C, B,,2) | (C,2 F,,2 | %11
"^ritar  -      -            dan   -     -       -         do" B,,>A,, G,,2) | C,2 C,2 | %13
 B,,>A,, !fermata!G,,2 | [G,,G,] z [^C,,^C,] z | [D,,D,] z [F,,F,] z | [G,,G,] z [^C,,^C,] z | %17
 [D,,D,] z [F,,F,] z | [G,,G,] z [B,,,B,,] z | [C,,C,] z [E,,E,] z | [D,,D,] z [D,,D,] z | %21
 [G,,D,]4 :| %22
V:5
 x4 | x4 | x4 | x4 | x2 G,2- | G,2 x2 | x4 | x4 :: x4 | x8/3[K:bass] x4/3 | x4 | x4 | x4 | D,4 | %14
 x4 | x2[K:treble] x2 | x4 | x4 | x2 G,2- | G,2 x2 | x4 | x2/3 (3:2:1B,2 x2 :| %22

